src/assets/svg/hero-card-1.svg

<svg width="55" height="55" viewBox="0 0 55 55" fill="none" xmlns="http://www.w3.org/2000/svg">
<path fill-rule="evenodd" clip-rule="evenodd" d="M30.2919 6.31951C25.5527 8.72756 14.8701 20.6141 11.3861 27.2747C9.28544 31.2967 9.54169 31.5272 16.3303 31.9115L21.1721 32.1933C12.3852 47.5638 13.2818 45.9243 13.2049 46.078C11.2836 49.3827 13.8966 51.5858 16.6633 48.9984C16.6889 48.9728 40.4364 30.5281 44.689 24.4055C45.1757 23.7138 45.0477 22.9197 43.9717 22.1255C42.2041 20.819 39.8217 20.4091 31.1373 19.6919C29.7795 19.5894 29.1648 19.4357 29.2672 19.2308C29.9077 17.6681 32.3669 11.1099 33.5453 8.54823C34.9287 5.55097 34.8006 4.01392 30.2919 6.31951ZM28.5242 12.0578C28.2937 12.5958 25.4501 19.4101 25.322 19.6919C24.656 21.024 25.0915 21.7157 26.7566 21.895C32.29 22.4842 34.4931 22.6891 36.7219 22.7916C40.4108 22.9709 40.4365 22.8172 36.5426 26.7367C32.3926 30.938 21.7869 40.6727 21.5563 40.4421C21.3514 40.2372 24.7585 33.7303 25.6808 32.5263C27.3459 30.3488 26.8335 30.0414 21.5307 30.0414C19.1482 30.0414 17.6624 29.9901 16.5352 29.9133C15.4849 29.8364 14.8444 28.7093 15.3568 27.7614C17.2781 24.2518 20.7109 19.8712 26.4237 13.5949C29.0367 10.7769 29.0878 10.7257 28.5242 12.0578Z" fill="#000001"/>
</svg>

<svg xmlns="http://www.w3.org/2000/svg" width="55" height="55" fill="none">
  <path fill="#000001" fill-rule="evenodd" d="M30.3 6.3a70.7 70.7 0 0 0-19 21c-2 4-1.8 4.2 5 4.6l4.9.3-8 13.9c-2 3.3.7 5.5 3.5 2.9 0 0 23.7-18.5 28-24.6.5-.7.3-1.5-.7-2.3-1.8-1.3-4.2-1.7-12.9-2.4-1.3-.1-2-.3-1.8-.5.6-1.5 3-8 4.2-10.7 1.4-3 1.3-4.5-3.2-2.2Zm-1.8 5.8-3.2 7.6c-.6 1.3-.2 2 1.5 2.2 5.5.6 7.7.8 10 .9 3.6.2 3.6 0-.3 4a184.5 184.5 0 0 1-15 13.6c-.1-.2 3.3-6.7 4.2-7.9 1.6-2.2 1.1-2.5-4.2-2.5h-5c-1-.2-1.7-1.3-1.1-2.2 1.9-3.5 5.3-8 11-14.2 2.6-2.8 2.7-2.9 2.1-1.5Z" clip-rule="evenodd"/>
</svg>
